assets/img/best.svg

<svg width="120" height="120" viewBox="0 0 120 120" fill="none" xmlns="http://www.w3.org/2000/svg">
<circle cx="60" cy="60" r="60" fill="#F3F3F3"/>
<path d="M29.0428 48.7707C29.6592 48.7707 30.1589 48.2712 30.1589 47.6547V38.6441C30.1589 36.1233 31.7772 34.2937 34.0067 34.2937H47.1491C47.7654 34.2937 48.2652 33.7941 48.2652 33.1776C48.2652 32.5611 47.7654 32.0615 47.1491 32.0615H34.0067C30.5406 32.0615 27.9268 34.8914 27.9268 38.6441V47.6547C27.9268 48.2712 28.4265 48.7707 29.0428 48.7707Z" fill="#6ADF91"/>
<path d="M34.0069 36.4189C32.9764 36.4189 32.2842 37.3133 32.2842 38.6444V73.1064C32.2842 73.367 32.3754 73.6194 32.5419 73.8198C32.8206 74.1553 33.3519 74.5134 34.0069 74.5134H89.9946C90.6494 74.5134 91.1808 74.1554 91.4595 73.8201C91.6263 73.6197 91.7175 73.3672 91.7175 73.1064V67.3328C91.7175 66.7163 91.218 66.2167 90.6014 66.2167C89.9849 66.2167 89.4854 66.7163 89.4854 67.3328V72.2813H34.5163V38.6511H47.5226C48.1389 38.6511 48.6386 38.1515 48.6386 37.535C48.6386 36.9185 48.1389 36.4189 47.5226 36.4189H34.0069Z" fill="#6ADF91"/>
<path d="M90.6007 64.0023C91.2172 64.0023 91.7168 63.5027 91.7168 62.8862V38.6444C91.7168 37.3133 91.0244 36.4189 89.9938 36.4189H76.7821C76.1656 36.4189 75.666 36.9185 75.666 37.535C75.666 38.1515 76.1656 38.6511 76.7821 38.6511H89.4846V62.8861C89.4846 63.5026 89.9843 64.0023 90.6007 64.0023Z" fill="#6ADF91"/>
<path d="M97.9742 79.157H96.0749V38.6437C96.0749 34.8915 93.4609 32.062 89.9946 32.062H76.9514C76.3349 32.062 75.8353 32.5616 75.8353 33.1781C75.8353 33.7946 76.3349 34.2942 76.9514 34.2942H89.9946C92.2243 34.2942 93.8428 36.1235 93.8428 38.6437V79.157H69.7093C68.5395 79.157 67.5877 80.1087 67.5877 81.2785V82.3095H56.4133V81.2785C56.4133 80.1087 55.4615 79.157 54.2917 79.157H30.1582V52.1183C30.1582 51.5017 29.6585 51.0022 29.0422 51.0022C28.4258 51.0022 27.9261 51.5017 27.9261 52.1183V79.1568H26.0269C24.8571 79.157 23.9053 80.1086 23.9053 81.2784V83.9C23.9053 86.5464 26.0582 88.6994 28.7047 88.6994H95.2963C97.9428 88.6994 100.096 86.5464 100.096 83.9V81.2784C100.096 80.1086 99.144 79.157 97.9742 79.157ZM97.8636 83.9001C97.8636 85.3157 96.712 86.4674 95.2963 86.4674H28.7047C27.2891 86.4674 26.1374 85.3157 26.1374 83.9001V81.3891H29.0394C29.0402 81.3891 29.0413 81.3892 29.0422 81.3892C29.0431 81.3892 29.0441 81.3891 29.045 81.3891H54.1812V82.42C54.1812 83.5898 55.133 84.5416 56.3027 84.5416H67.6983C68.8681 84.5416 69.8199 83.5898 69.8199 82.42V81.3891H94.956C94.9569 81.3891 94.958 81.3892 94.9588 81.3892C94.9597 81.3892 94.9608 81.3891 94.9617 81.3891H97.8636V83.9001Z" fill="#6ADF91"/>
<path d="M62.0003 43.2989C64.7757 43.2989 67.0338 41.0409 67.0338 38.2654C67.0338 35.49 64.7757 33.2319 62.0003 33.2319C59.2248 33.2319 56.9668 35.49 56.9668 38.2654C56.9668 41.0409 59.2248 43.2989 62.0003 43.2989ZM62.0003 35.4641C63.5449 35.4641 64.8016 36.7208 64.8016 38.2654C64.8016 39.8101 63.5449 41.0668 62.0003 41.0668C60.4556 41.0668 59.1989 39.8101 59.1989 38.2654C59.1989 36.7208 60.4556 35.4641 62.0003 35.4641Z" fill="#4BB1E9"/>
<path d="M50.9059 37.8497C47.8471 40.8332 46.1035 44.9468 46.1035 49.2334C46.1035 49.5933 46.1154 49.9492 46.1388 50.2898C46.2392 51.7661 47.4748 52.9224 48.9517 52.9224H54.8659C54.9815 53.2337 55.098 53.5427 55.2162 53.8465C55.6782 55.0332 56.7996 55.8 58.073 55.8H65.9288C67.2023 55.8 68.3236 55.0332 68.7855 53.8465C68.9037 53.5427 69.0202 53.2337 69.1358 52.9224H75.0501C76.5269 52.9224 77.7624 51.766 77.8629 50.2902C77.8863 49.9484 77.8982 49.5928 77.8982 49.2332C77.8982 44.9466 76.1546 40.8332 73.0958 37.8496C73.4218 35.764 73.6041 33.8689 73.6041 32.3285C73.6041 24.475 63.7493 18.7628 62.6235 18.1361C62.6175 18.1328 62.6113 18.1292 62.6057 18.1262C62.6043 18.1255 62.6029 18.1247 62.6014 18.1239C62.568 18.1053 62.5441 18.0923 62.5325 18.0861C62.531 18.0853 62.5296 18.0849 62.5282 18.084C62.4907 18.0639 62.4525 18.0466 62.4139 18.0311C62.4038 18.0271 62.3935 18.0239 62.3834 18.0201C62.3519 18.0085 62.32 17.9984 62.288 17.9898C62.2776 17.9869 62.2674 17.9844 62.2569 17.9819C62.2223 17.9737 62.1874 17.9672 62.1526 17.9624C62.1453 17.9614 62.1382 17.96 62.1309 17.9593C62.0444 17.9491 61.958 17.9491 61.8727 17.9591C61.8636 17.9602 61.8546 17.9619 61.8455 17.9631C61.8126 17.9679 61.78 17.9739 61.7476 17.9814C61.7361 17.9841 61.7246 17.9869 61.7132 17.9899C61.6791 17.999 61.6455 18.0097 61.6123 18.0221C61.6056 18.0246 61.5988 18.0265 61.5922 18.0291C61.5514 18.0451 61.5117 18.0634 61.4732 18.0843C61.472 18.0849 61.4706 18.0853 61.4693 18.0861C61.4056 18.1206 59.887 18.9483 57.988 20.3911C57.4973 20.7642 57.4019 21.4643 57.7748 21.9551C58.1479 22.446 58.848 22.5413 59.3386 22.1685C60.4485 21.325 61.4275 20.703 62.0001 20.3582C63.2196 21.0945 66.2885 23.0948 68.5867 25.8392C68.5937 25.8475 68.6007 25.8558 68.6077 25.8642C68.6697 25.9386 68.731 26.0137 68.7919 26.0892C68.8199 26.1239 68.8474 26.1585 68.8748 26.193C68.9174 26.2466 68.9595 26.3003 69.0014 26.3544C69.0165 26.3739 69.0307 26.3932 69.0456 26.4125H54.9549C55.3114 25.9474 55.7074 25.4823 56.1409 25.0201C56.5626 24.5706 56.54 23.8642 56.0904 23.4425C55.6409 23.0209 54.9345 23.0433 54.5129 23.493C53.9267 24.118 53.4013 24.7517 52.9361 25.3881C52.9214 25.406 52.9063 25.4234 52.8925 25.4423C52.8459 25.5067 52.8022 25.5712 52.7569 25.6355C52.7431 25.6553 52.7291 25.675 52.7154 25.6947C52.6293 25.8182 52.5456 25.9417 52.4642 26.0654C52.448 26.0899 52.4319 26.1143 52.416 26.1389C52.3392 26.2567 52.2648 26.3747 52.1925 26.4929C52.1739 26.5233 52.1553 26.5536 52.137 26.5838C52.0688 26.6969 52.0028 26.81 51.9386 26.9231C51.9275 26.9427 51.9151 26.9624 51.9041 26.982C51.9017 26.9864 51.9001 26.991 51.8979 26.9953C50.9031 28.7721 50.3979 30.5597 50.3979 32.3285C50.3976 33.8691 50.5799 35.7642 50.9059 37.8497ZM48.9517 50.6902C48.6443 50.6902 48.3868 50.4478 48.3657 50.1374C48.3458 49.8466 48.3355 49.5425 48.3355 49.2334C48.3355 46.0789 49.4339 43.0332 51.3996 40.6125C52.0513 43.8767 52.9825 47.4051 54.0799 50.6902H48.9517ZM75.666 49.2334C75.666 49.5422 75.6559 49.8465 75.636 50.1381C75.6148 50.4477 75.3575 50.6902 75.0499 50.6902H69.9217C71.0188 47.4053 71.9502 43.8767 72.6019 40.6127C74.5677 43.0332 75.666 46.0789 75.666 49.2334ZM70.445 28.6447C71.1604 30.1093 71.3718 31.3609 71.3718 32.3286C71.3718 37.2188 69.3221 46.3148 66.7053 53.0367C66.5797 53.3593 66.2748 53.5678 65.9287 53.5678H58.0729C57.7266 53.5678 57.4218 53.3593 57.2961 53.0367C54.6794 46.3149 52.6296 37.2189 52.6296 32.3286C52.6296 31.1271 52.94 29.8939 53.5516 28.6447H70.445Z" fill="#4BB1E9"/>
<path d="M62.0003 67.5704C61.0707 66.7428 60.4804 65.6035 60.3503 64.35C60.2866 63.737 59.7377 63.2909 59.125 63.355C58.5119 63.4187 58.0664 63.9672 58.1301 64.5803C58.3564 66.762 59.5451 68.7032 61.3914 69.9059C61.5765 70.0266 61.7886 70.0869 62.0006 70.0869C62.2127 70.0869 62.4247 70.0266 62.6098 69.9059C64.6764 68.5595 65.9101 66.2861 65.9101 63.8247C65.9101 61.3631 64.6764 59.0897 62.6098 57.7434C62.2396 57.5022 61.7618 57.5022 61.3914 57.7434C60.727 58.1762 60.1408 58.7114 59.649 59.3342C59.267 59.818 59.3494 60.5198 59.8332 60.9017C60.3168 61.2834 61.0186 61.2015 61.4008 60.7177C61.5829 60.487 61.7835 60.2739 62.0011 60.0796C63.0624 61.0259 63.678 62.3785 63.678 63.8247C63.6777 65.2711 63.0619 66.6239 62.0003 67.5704Z" fill="#4BB1E9"/>
</svg>

<svg width="120" height="120" fill="none" xmlns="http://www.w3.org/2000/svg"><circle cx="60" cy="60" r="60" fill="#F3F3F3"/><path d="M29.043 48.77c.616 0 1.116-.499 1.116-1.115v-9.01c0-2.522 1.618-4.351 3.848-4.351h13.142a1.116 1.116 0 000-2.232H34.007c-3.466 0-6.08 2.83-6.08 6.582v9.01c0 .617.5 1.117 1.116 1.117z" fill="#6ADF91"/><path d="M34.007 36.419c-1.03 0-1.723.894-1.723 2.225v34.462c0 .261.091.513.258.714.279.335.81.693 1.465.693h55.988c.654 0 1.186-.358 1.465-.693.166-.2.258-.453.258-.714v-5.773a1.116 1.116 0 10-2.233 0v4.948H34.516v-33.63h13.007a1.116 1.116 0 000-2.232H34.007zM90.6 64.002c.617 0 1.117-.5 1.117-1.116V38.644c0-1.33-.693-2.225-1.723-2.225H76.782a1.116 1.116 0 100 2.232h12.703v24.235c0 .617.5 1.116 1.116 1.116z" fill="#6ADF91"/><path d="M97.974 79.157h-1.9V38.644c0-3.752-2.613-6.582-6.08-6.582H76.952a1.116 1.116 0 100 2.232h13.044c2.23 0 3.848 1.83 3.848 4.35v40.513H69.709c-1.17 0-2.121.952-2.121 2.121v1.031H56.413v-1.03c0-1.17-.951-2.122-2.121-2.122H30.158V52.118a1.116 1.116 0 10-2.232 0v27.039h-1.9c-1.169 0-2.12.952-2.12 2.121V83.9c0 2.646 2.152 4.8 4.799 4.8h66.591c2.647 0 4.8-2.154 4.8-4.8v-2.622c0-1.17-.952-2.121-2.122-2.121zm-.11 4.743a2.57 2.57 0 01-2.568 2.567H28.705a2.57 2.57 0 01-2.568-2.567v-2.51h28.044v1.03c0 1.17.952 2.122 2.122 2.122h11.395c1.17 0 2.122-.952 2.122-2.122v-1.03h28.044v2.51z" fill="#6ADF91"/><path d="M62 43.299a5.04 5.04 0 005.034-5.034A5.04 5.04 0 0062 33.232a5.04 5.04 0 00-5.033 5.033A5.04 5.04 0 0062 43.3zm0-7.835a2.805 2.805 0 012.802 2.801A2.805 2.805 0 0162 41.067a2.805 2.805 0 01-2.801-2.802 2.805 2.805 0 012.801-2.8z" fill="#4BB1E9"/><path d="M50.906 37.85a15.928 15.928 0 00-4.767 12.44 2.83 2.83 0 002.813 2.632h5.914c.115.312.232.62.35.925a3.047 3.047 0 002.857 1.953h7.856a3.046 3.046 0 002.856-1.953c.119-.304.235-.613.35-.925h5.915a2.83 2.83 0 002.813-2.632 15.928 15.928 0 00-4.767-12.44c.326-2.086.508-3.981.508-5.521 0-7.854-9.855-13.566-10.98-14.193l-.018-.01-.005-.002a5.03 5.03 0 00-.069-.038l-.004-.002a1.141 1.141 0 00-.114-.053l-.03-.01a1.11 1.11 0 00-.231-.059c-.008 0-.015-.002-.022-.003a1.104 1.104 0 00-.258 0l-.027.004a1.205 1.205 0 00-.234.06l-.02.006a1.06 1.06 0 00-.119.055l-.004.002c-.063.035-1.582.862-3.481 2.305a1.116 1.116 0 001.35 1.778A30.476 30.476 0 0162 20.359c1.22.735 4.288 2.736 6.587 5.48l.02.025a18.208 18.208 0 01.394.49l.045.059H54.955c.356-.466.752-.93 1.186-1.393a1.116 1.116 0 00-1.628-1.527 20.207 20.207 0 00-1.577 1.895c-.015.018-.03.035-.044.054l-.135.194-.042.059a16.698 16.698 0 00-.523.798l-.055.09c-.068.114-.134.227-.198.34l-.035.059-.006.013c-.995 1.777-1.5 3.565-1.5 5.333 0 1.541.182 3.436.508 5.522zm-1.954 12.84a.591.591 0 01-.586-.553 13.693 13.693 0 013.034-9.525 85.29 85.29 0 002.68 10.078h-5.128zm26.714-1.457c0 .31-.01.614-.03.905a.591.591 0 01-.586.552h-5.128a85.345 85.345 0 002.68-10.077 13.692 13.692 0 013.064 8.62zm-5.221-20.588c.715 1.464.927 2.716.927 3.684 0 4.89-2.05 13.986-4.667 20.708a.828.828 0 01-.776.53h-7.856a.829.829 0 01-.777-.53c-2.617-6.722-4.666-15.818-4.666-20.708 0-1.202.31-2.435.922-3.684h16.893zM62 67.57a4.988 4.988 0 01-1.65-3.22 1.116 1.116 0 00-2.22.23 7.223 7.223 0 003.261 5.326 1.114 1.114 0 001.219 0 7.236 7.236 0 003.3-6.081 7.236 7.236 0 00-3.3-6.082 1.116 1.116 0 00-1.219 0 7.277 7.277 0 00-1.742 1.591 1.116 1.116 0 101.752 1.384c.182-.231.382-.444.6-.638a5.005 5.005 0 011.677 3.745A5.003 5.003 0 0162 67.57z" fill="#4BB1E9"/></svg>
